X:56
T:Duke of York. RH.056
R:.Hornpipe
S:Rev.R.Harrison’s MS,c1815,Cumbria
O:England
A:Temple Sowerby,Cumbria
Z:vmp.Simon Wilson. Review PJH, 2008.
M:C|
L:1/8
Q:1/2=90
K:G
Bc|d2dg edcB|d2dg edcB|DGBG DGBG|DGBd cBAG|!
d2dg edcB|d2dg edcB|gfgd ecAF|G2GG G2:|!
|:Bc|d3e dBGB|e2e2 e4|c3d dAFA|dgfa g4|!
dBdg eceg|fdef g2de/f/|gfgd ecAF|G2GG G2:|

